X: 9
T: The Road To Skye
R: jig
M: 6/8
L: 1/8
K: Gmaj
G2 G DB,/C/D | GBd e2 f | gdB BAB cBc E2 D |GFG D2 D | GB/c/d e2 d | g2 B BB/B/B | cEF G2 :|GBd GBd | GBd cBA | GB/c/d efg | fd^c d2 f |gbg f/g/ag | ece d2 B | cBc Adc | BGF G2 :|GFG E2 D | GBd e2 d | gBB B^AB | cBc E2 D |GFG E2 D | GBd e2 d | gBB B^AB | cAF G2 :|GBd GBd | GBd cBA | GBd efg | fd^c def |gbg afd | cde dBG | cBc Adc | BGF G2 :|


Tune 1709	Setting 1709

